X: 3
T: MID-YELL SCHOOL WALTZ
S: Jacqueline Sinclair, Bells Brae
R: waltz
B: Haand me doon da fiddle, 1979
Z: 2012 John Chambers <jc:trillian.mit.edu>
M: 3/4
L: 1/4
K: A
u(c/d/) |\
ve2e | f2f | e2c | A2A | a2a | g2f | e6- | ecd |
 e2e | f2f | e2c | A2c | B2B | c2c | B3  | Bcd |
 e2e | f2f | e2d | c2c | a2a | g2f | e3  | efg |
 a2a | g2f | ea2 | A2B | ce2 | c2B | A3  | A2 :|
%%begintext align
%%endtext

%%sep 2 1 500
%%sep 1 1 500

